!!!COM: Palestrina, Giovanni Perluigi da
!!!OPR: Missa O Regem coeli
!!!OTL: Sanctus
**kern	**kern	**kern	**kern
*Ibass	*Itenor	*Icalto	*Icant
!Bassus	!Tenor	!Altus	!Cantus
*clefF4	*clefGv2	*clefG2	*clefG2
*k[b-]	*k[b-]	*k[b-]	*k[b-]
*G:dor	*G:dor	*G:dor	*G:dor
*M4/2	*M4/2	*M4/2	*M4/2
=1	=1	=1	=1
0r	1d	0r	0r
.	[1c	.	.
=2	=2	=2	=2
0r	2c]	0r	0r
.	2B-	.	.
.	1e-	.	.
=3	=3	=3	=3
0r	2.d	1a	0r
.	4c	.	.
.	2B-	[1g	.
.	2c	.	.
=4	=4	=4	=4
0r	1A	2g]	0r
.	.	2f	.
.	4G	1b-	.
.	4A	.	.
.	4B-	.	.
.	4c	.	.
=5	=5	=5	=5
0r	4d	1.a	1dd
.	4e	.	.
.	1f	.	.
.	.	.	[1cc
.	2e	2g	.
=6	=6	=6	=6
0r	2f	2a	2cc]
.	2d	2f	2b-
.	1c	2.g	1ee-
.	.	4a	.
=7	=7	=7	=7
0r	1d	2b-	2.dd
.	.	2.a	.
.	.	.	4cc
.	2e-	.	2b-
.	.	4g	.
.	2c	[2g	2cc
=8	=8	=8	=8
1D	1d	2g]	1a
.	.	2f#	.
[1C	2.e-	1g	2.cc
.	4d	.	4b-
=9	=9	=9	=9
2C]	2c	2r	4a
.	.	.	4g
2BB-	2d	1d	1b-
1E-	1G	.	.
.	.	2c	4a
.	.	.	4g
=10	=10	=10	=10
0D	1A	2.d	2f
.	.	.	2.ff
.	.	4e	.
.	1r	1f	.
.	.	.	4ee
.	.	.	[2dd
=11	=11	=11	=11
1A	0r	2e	4dd]
.	.	.	4cc
.	.	2c	1cc
[1G	.	2.d	.
.	.	.	4b-
.	.	4c	4a
=12	=12	=12	=12
2G]	1r	4d	2b-
.	.	4e	.
2F	.	1f	2.a
1B-	1d	.	.
.	.	.	4g
.	.	4e	[2g
.	.	4d	.
=13	=13	=13	=13
1A	1.c	2e	2g]
.	.	2c	2f#
1G	.	1d	[1g
.	2B-	.	.
=14	=14	=14	=14
2r	1e-	1c	1g]
1c	.	.	.
.	2.d	2G	1r
2B-	.	[2g	.
.	4c	.	.
=15	=15	=15	=15
2G	2B-	2g]	1r
2A	2c	4f	.
.	.	4e	.
1F	2A	1f	1a
.	[2c	.	.
=16	=16	=16	=16
1G	2c]	1d	1.g
.	2B-	.	.
1D	2A	2r	.
.	2B-	[2d	2f
=17	=17	=17	=17
0r	1G	4d]	1b-
.	.	4d	.
.	.	2e	.
.	2F	2.f	2.a
.	[2f	.	.
.	.	4g	4g
=18	=18	=18	=18
2r	4f]	2a	2f
.	4e	.	.
2.G	1d	1b-	2g
.	.	.	1e
4G	.	.	.
2A	2c#	4a	.
.	.	4g	.
=19	=19	=19	=19
2.B-	0d	4f	1d
.	.	4e	.
.	.	4d	.
4A	.	4c	.
4G	.	2.B-	2r
4F	.	.	.
[2G	.	.	[2dd
.	.	4A	.
=20	=20	=20	=20
4G]	0r	2B-	4dd]
4F	.	.	4dd
2E	.	2c	2ee
1D	.	2.d	2.ff
.	.	4c	4ee
=21	=21	=21	=21
1.G	2r	1B-	4dd
.	.	.	4cc
.	2.d	.	1dd
.	.	1B-	.
.	4d	.	.
2G	2e	.	4cc
.	.	.	4b-
=22	=22	=22	=22
1F	2.f	1c	1a
.	4e	.	.
1r	4d	2r	1a
.	4c	.	.
.	[2d	[2f	.
=23	=23	=23	=23
0r	2d]	4f]	1dd
.	.	4f	.
.	4c	2g	.
.	4B-	.	.
.	1A	2.a	2.cc
.	.	4g	4b-
=24	=24	=24	=24
1r	0d	4f	4a
.	.	4e	4g
.	.	2.f	1a
2r	.	.	.
.	.	4e	.
[2G	.	[2d	4g
.	.	.	4f
=25	=25	=25	=25
4G]	0r	2d]	2e
4G	.	.	.
2A	.	2c#	2e
2.B-	.	1d	[1d
4A	.	.	.
=26	=26	=26	=26
4G	2r	1r	1d]
4F	.	.	.
2.G	2.d	.	.
.	.	1g	1r
4F	4d	.	.
2E	2e	.	.
=27	=27	=27	=27
1D	2.f	2a	2r
.	.	2a	2.dd
.	4e	.	.
2G	2d	2b-	.
.	.	.	4dd
2C	4c	4a	2ee
.	4B-	4g	.
=28	=28	=28	=28
0D	2A	2f	2.ff
.	2A	2d	.
.	.	.	4ee
.	2.d	2.f	4dd
.	.	.	4cc
.	.	.	[2dd
.	4e	4g	.
=29	=29	=29	=29
1r	2f	2a	4dd]
.	.	.	4cc
.	2g	1g	2b-
2r	2d	.	1a
[2d	2d	2f#	.
=30	=30	=30	=30
2d]	2G	1g	2b-
2c	1g	.	2cc
2.d	.	1r	1a
.	2f#	.	.
4c	.	.	.
=31	=31	=31	=31
2B-	2g	2r	1g
2c	1e	1g	.
1A	.	.	1r
.	4d	2f#	.
.	4c	.	.
=32	=32	=32	=32
1G	4d	1g	2r
.	4c	.	.
.	4B-	.	1dd
.	4A	.	.
1r	2G	1e	.
.	2A	.	2cc#
=33	=33	=33	=33
0r	1B-	2d	2.dd
.	.	1d	.
.	.	.	4cc
.	2G	.	2b-
.	[2g	2c	2cc
=34	=34	=34	=34
1r	2g]	2.d	1a
.	2f#	.	.
.	.	4c	.
2r	2.g	2B-	[1g
[2c	.	2c	.
.	4f	.	.
=35	=35	=35	=35
2c]	2e	1G	0g]
2B	2d	.	.
2.c	1e	2r	.
.	.	[2g	.
4B-	.	.	.
=36	=36	=36	=36
2A	2c	2g]	0r
2B-	1f	2f	.
1G	.	1b-	.
.	2e	.	.
=37	=37	=37	=37
1F	2.f	2.a	2r
.	.	.	1a
.	4e	4g	.
1r	2d	2f	.
.	2B-	2d	2g
=38	=38	=38	=38
1r	2c	2e	2.a
.	1d	2f	.
.	.	.	4g
2r	.	1d	2f
[2d	2G	.	2g
=39	=39	=39	=39
2d]	1A	2r	1e
2c#	.	1a	.
2.d	1r	.	1d
.	.	2f	.
4c	.	.	.
=40	=40	=40	=40
2B-	2r	2g	0r
2c	1g	1e	.
1A	.	.	.
.	2f#	4d	.
.	.	4c	.
=41	=41	=41	=41
1G	1g	2d	2r
.	.	2G	1dd
1r	1e	2r	.
.	.	[2g	2cc#
=42	=42	=42	=42
0r	1d	2g]	2.dd
.	.	2f#	.
.	.	.	4cc
.	2r	2g	2b-
.	[2g	2c	2cc
=43	=43	=43	=43
1r	2g]	1d	1a
.	2f#	.	.
2r	2.g	1G	2g
[2G	.	.	[2b-
.	4f	.	.
=44	=44	=44	=44
2G]	2e	2r	2b-]
2F	2f	1c	2a
2.G	1d	.	1g
.	.	2B-	.
4F	.	.	.
=45	=45	=45	=45
2E	2r	2G	1cc
2F	1c	2A	.
1D	.	1F	[1ff
.	2B	.	.
=46	=46	=46	=46
1C	1c	2G	2ff]
.	.	1g	2ee-
[1G	2B	.	2.dd
.	4G	2g	.
.	4A	.	4cc
=47	=47	=47	=47
2G]	4B-	2d	2b-
.	4c	.	.
2F	2.d	2.f	2a
2D	.	.	2b-
.	4c	4e	.
2F	2A	2c	[2a
=48	=48	=48	=48
2E-	2B-	1e-	4a]
.	.	.	4g
2C	2c	.	1g
1D	1A	1d	.
.	.	.	2f#
=49	=49	=49	=49
0G	0G	0d	0g
=50	=50	=50	=50
0r	1g	1G	0r
.	2g	2G	.
.	2g	2G	.
=51	=51	=51	=51
1D	2.f	2.d	0r
.	4e	4e	.
2D	4d	[1f	.
.	4c	.	.
2D	[2d	.	.
=52	=52	=52	=52
1.A	2d]	2f]	0r
.	1c	2e	.
.	.	4f	.
.	.	4e	.
2F	[2f	[2a	.
=53	=53	=53	=53
0B-	4f]	2a]	1dd
.	4e	.	.
.	4d	4g	.
.	4c	4f	.
.	1d	1g	2dd
.	.	.	2dd
=54	=54	=54	=54
0A	1e	1a	2.cc
.	.	.	4b-
.	1c	1e	4a
.	.	.	4g
.	.	.	2a
=55	=55	=55	=55
2r	1d	1f	2b-
2d	.	.	1a
2d	1B-	1d	.
2d	.	.	2g
=56	=56	=56	=56
2.c	1A	1e	0a
4B-	.	.	.
4A	2.c	2r	.
4G	.	.	.
[2A	.	2a	.
.	4d	.	.
=57	=57	=57	=57
2A]	2e	2a	1.cc
2F	2f	2a	.
1G	2e	2.g	.
.	[2d	.	2b-
.	.	4f	.
=58	=58	=58	=58
1A	2d]	4e	1a
.	.	4d	.
.	2c#	2e	.
[1D	2d	2f	1a
.	[2f	[2d	.
=59	=59	=59	=59
1D]	4f]	4d]	2r
.	4e	4c	.
.	4d	4d	2dd
.	4c	4e	.
1r	2d	2f	2dd
.	2B-	2g	2dd
=60	=60	=60	=60
0r	1c	4a	2.cc
.	.	4g	.
.	.	1g	.
.	.	.	4b-
.	[1d	.	4a
.	.	.	4g
.	.	4f	2a
.	.	4e	.
=61	=61	=61	=61
1r	1d]	1f	2b-
.	.	.	2.a
2r	2.c	[1e	.
.	.	.	4g
2c	.	.	[2g
.	4B-	.	.
=62	=62	=62	=62
2c	1A	2e]	2g]
2c	.	4d	2f#
.	.	4c	.
2.B-	2.G	1d	[1g
4A	4A	.	.
=63	=63	=63	=63
4G	1.B-	2r	1g]
4F	.	.	.
1G	.	2g	.
.	.	2g	1r
2E	2G	2g	.
=64	=64	=64	=64
1F	4A	2.f	0r
.	4B-	.	.
.	1c	.	.
.	.	4e	.
1G	.	4d	.
.	.	4c	.
.	2B	2d	.
=65	=65	=65	=65
1C	2.c	2e	2r
.	.	1g	2cc
.	4B-	.	.
1r	1A	.	2cc
.	.	2f#	2cc
=66	=66	=66	=66
2r	1G	2.g	2.b-
2G	.	.	.
.	.	4f	4a
2G	1r	2e	4g
.	.	.	4f
2G	.	[2d	2g
=67	=67	=67	=67
2.F	1r	2d]	1.a
.	.	2c	.
4E	.	.	.
4D	1d	[1f	.
4C	.	.	.
[2D	.	.	2f
=68	=68	=68	=68
2D]	2d	1f]	1b-
2BB-	2d	.	.
1C	2.c	1e	2a
.	.	.	[2g
.	4B-	.	.
=69	=69	=69	=69
1D	1A	1d	2g]
.	.	.	2f#
2.G	4G	2r	1g
.	4A	.	.
.	4B-	2g	.
4A	4c	.	.
=70	=70	=70	=70
2B-	2d	2g	2r
2c	2e	2g	2cc
1F	2f	2.f	2cc
.	2F	.	2cc
.	.	4e	.
=71	=71	=71	=71
2r	4G	4d	2.b-
.	4A	4c	.
2G	4B-	2d	.
.	4c	.	4a
2G	1d	4B-	4g
.	.	4c	4f
2G	.	4d	2g
.	.	4e	.
=72	=72	=72	=72
2.F	1r	[0f	1.a
4E	.	.	.
4D	1d	.	.
4C	.	.	.
[2D	.	.	2f
=73	=73	=73	=73
2D]	2d	1f]	1b-
2BB-	2d	.	.
1C	2.c	1e	2a
.	.	.	[2g
.	4B-	.	.
=74	=74	=74	=74
[0D	4A	[0d	2g]
.	4G	.	.
.	1G	.	4f
.	.	.	4e
.	.	.	4f
.	.	.	4g
.	2F	.	[2a
=75	=75	=75	=75
0D]	1B-	1d_	4a]
.	.	.	4g
.	.	.	1g
.	1A	1d_	.
.	.	.	2f#
=76	=76	=76	=76
[0G	[0G	0d]	[0g
=77	=77	=77	=77
0G]	0G]	0d	0g]
==	==	==	==
*-	*-	*-	*-
!!!CDT: 1525/^1526/-1594/2/2
!!!OCY: Italia
!!!AGN: Mass (Parody)
!!!AST: renaissance, vocal
!!!ASW: Motet 1532 (Silva)
!!!PWK: Masses, Book I
!!!RNB: Cadence finals: D
!!!YOR: Le Opere Complete, v. 1, p. 35
!!!YOO: Rome, Italy: Fratelli Scalera
!!!END: 1992//
!!!EED: John Miller
!!!YEC: Copyright 2000, John Miller
!!!YEN: United States of America
!!!YEM: Rights to all derivative electronic formats reserved.
!!!YEM: Refer to licensing agreement for further details.
!!!YEM: This file must be accompanied by the licensing agreement.
!!!YEM: A copy of the licensing agreement may be found at http://www.music-cog.ohio-state.edu/HumdrumDatabases/Palestrina/license.txt
!!!EMD: converted to Humdrum by Bret Aarden
